icon/cg/comment.svg

<svg width="24" height="24" fill="none" xmlns="http://www.w3.org/2000/svg"><path d="M17 9H7V7h10v2ZM7 13h10v-2H7v2Z" fill="currentColor"/><path fill-rule="evenodd" clip-rule="evenodd" d="M2 18V2h20v16h-6v4h-2a4 4 0 0 1-4-4H2Zm10-2v2a2 2 0 0 0 2 2v-4h6V4H4v12h8Z" fill="currentColor"/></svg>

<svg viewBox="0 0 24 24" fill="none" xmlns="http://www.w3.org/2000/svg" height="1em" width="1em">
  <path d="M17 9H7V7H17V9Z" fill="currentColor"/>
  <path d="M7 13H17V11H7V13Z" fill="currentColor"/>
  <path fill-rule="evenodd" clip-rule="evenodd" d="M2 18V2H22V18H16V22H14C11.7909 22 10 20.2091 10 18H2ZM12 16V18C12 19.1046 12.8954 20 14 20V16H20V4H4V16H12Z" fill="currentColor"/>
</svg>
